X:1
T:Go Bury Thy Sorrow
T:Philip Paul Bliss
T:Go Bury Thy Sorrow
T:Public Domain
T:Public Domain
C:Philip Paul Bliss
Z:Public Domain
%%score ( 1 2 ) 3
L:1/8
M:12/8
K:Bb
V:1 treble 
V:2 treble 
V:3 bass 
V:1
 [DB]3 [DB][FA][EG] [EG]3 [DF]3 | [CE]3 [CE][EG][DF] [B,D]6 | [DB]3 [DB][FA][EG] [EG]3 [DF]3 | %3
w: 1.~Go bu- ry thy sor- row,|The world hath its share;|Go bu- ry it deep- ly,|
w: 2.~Go tell it to Je- sus,|He know- eth thy grief;|Go tell it to Je- sus,|
w: 3.~Hearts grow- ing a- wear- y|With hea- vi- er woe|Now droop ’mid the dark- ness—|
 [C=E]3 [CE][CF][CG] [CF]6 | [CA]3 [CA][DB][Ec] [Ec]3 [EF]3 | [DF]3 [DF]D[Ec] [Fd]6 | %6
w: Go hide it with care.|Go think of it calm- ly,|When cur- tained by night;|
w: He’ll send thee re- lief;|Go ga- ther the sun- shine|He sheds on the way:|
w: Go, com- fort them, go!|Go bu- ry thy sor- row,|Let o- thers be blessed;|
 [^Fd]3 [Fd][Fc][FA] (G2 D) [EG]3 | [DF]3 [CF][DF][EF] [DF]6 |] %8
w: tell it to Je- sus, * And|will be right. * *|
w: light- en thy bur- den— * Go,|ry one, pray. * *|
w: give them the sun- shine, * Tell|sus the rest. * *|
V:2
 x12 | x12 | x12 | x12 | x12 | x4 D x7 | x6 B3 x3 | x12 |] %8
w: |||||Go|all||
w: |||||He’ll|wea-||
w: |||||Go|Je-||
V:3
 [B,,B,]3 [B,,B,][B,,B,][B,,B,] [B,,B,]3 [B,,B,]3 | F,3 F,F,F, [B,,F,]6 | %2
 [B,,B,]3 [B,,B,][B,,B,][B,,B,] [B,,B,]3 [B,,B,]3 | [C,G,]3 [C,G,][C,A,][C,B,] [F,A,]6 | %4
 [F,C]3 [F,C][F,B,][F,A,] [F,A,]3 [F,C]3 | [B,,B,]3 [B,,B,][B,,B,][B,,B,] [B,,B,]6 | %6
 [D,A,]3 [D,A,][D,A,][D,C] [G,B,]3 [E,B,]3 | [F,B,]3 [F,A,][F,B,][F,C] [B,,B,]6 |] %8

